src/data/flags/nauru.svg

<svg height="300" width="600" xmlns="http://www.w3.org/2000/svg"><path d="m0 0h600v300h-600z" fill="#002b7f"/><path d="m0 137.5h600v25h-600z" fill="#ffc61e"/><path d="m150 262.5-6.4705-25.8519-18.5295 19.1531 7.3223-25.6235-25.6236 7.3223 19.1532-18.5295-25.8519-6.4705 25.8519-6.4705-19.1532-18.5295 25.6236 7.3223-7.3223-25.6235 18.5295 19.1531 6.4705-25.8519 6.4705 25.8519 18.5295-19.1531-7.3223 25.6235 25.6236-7.3223-19.1532 18.5295 25.8519 6.4705-25.8519 6.4705 19.1532 18.5295-25.6236-7.3223 7.3223 25.6235-18.5295-19.1531z" fill="#fff"/></svg>

<svg height="300" width="600" xmlns="http://www.w3.org/2000/svg"><path d="M0 0h600v300H0z" fill="#002b7f"/><path d="M0 137.5h600v25H0z" fill="#ffc61e"/><path d="M150 262.5l-6.47-25.852L125 255.801l7.322-25.623L106.7 237.5l19.153-18.53L100 212.5l25.852-6.47-19.153-18.53 25.623 7.322L125 169.2l18.53 19.153L150 162.5l6.47 25.852L175 169.199l-7.322 25.623L193.3 187.5l-19.153 18.53L200 212.5l-25.852 6.47 19.153 18.53-25.623-7.322L175 255.8l-18.53-19.153z" fill="#fff"/></svg>
